iconfont/google-plus-box.svg

<svg xmlns="http://www.w3.org/2000/svg" width="24" height="24"><path d="M5 3h14a2 2 0 0 1 2 2v14a2 2 0 0 1-2 2H5a2 2 0 0 1-2-2V5a2 2 0 0 1 2-2m14.5 9H18v-1.5h-1V12h-1.5v1H17v1.5h1V13h1.5v-1m-9.85-.64v1.54h2.57c-.13.64-.77 1.93-2.57 1.93-1.54 0-2.76-1.29-2.76-2.83s1.22-2.83 2.76-2.83c.9 0 1.48.39 1.8.71l1.22-1.16c-.77-.77-1.8-1.22-3.02-1.22-2.51 0-4.5 2-4.5 4.5s1.99 4.5 4.5 4.5c2.57 0 4.31-1.8 4.31-4.37 0-.32 0-.52-.07-.77H9.65z"/></svg>

<?xml version="1.0" encoding="UTF-8"?><!DOCTYPE svg PUBLIC "-//W3C//DTD SVG 1.1//EN" "http://www.w3.org/Graphics/SVG/1.1/DTD/svg11.dtd"><svg xmlns="http://www.w3.org/2000/svg" xmlns:xlink="http://www.w3.org/1999/xlink" version="1.1" width="24" height="24" viewBox="0 0 24 24"><path d="M5,3H19A2,2 0 0,1 21,5V19A2,2 0 0,1 19,21H5A2,2 0 0,1 3,19V5A2,2 0 0,1 5,3M19.5,12H18V10.5H17V12H15.5V13H17V14.5H18V13H19.5V12M9.65,11.36V12.9H12.22C12.09,13.54 11.45,14.83 9.65,14.83C8.11,14.83 6.89,13.54 6.89,12C6.89,10.46 8.11,9.17 9.65,9.17C10.55,9.17 11.13,9.56 11.45,9.88L12.67,8.72C11.9,7.95 10.87,7.5 9.65,7.5C7.14,7.5 5.15,9.5 5.15,12C5.15,14.5 7.14,16.5 9.65,16.5C12.22,16.5 13.96,14.7 13.96,12.13C13.96,11.81 13.96,11.61 13.89,11.36H9.65Z" /></svg>
